z_dist/img/icons/crypto/uniswap-UNI.svg

<svg width="64" height="64" viewBox="0 0 64 64" fill="none" xmlns="http://www.w3.org/2000/svg">
<rect x="2" y="2.00049" width="60" height="60" rx="2" fill="url(#paint0_linear_572_423460)" stroke="#FFD9EC" stroke-width="4"/>
<path d="M26.9496 19.7648C26.5163 19.7029 26.4957 19.6823 26.702 19.6617C27.094 19.5998 28.0016 19.6823 28.6411 19.8267C30.1264 20.1774 31.4673 21.0851 32.8908 22.6735L33.2621 23.1067L33.7984 23.0242C36.0883 22.6529 38.44 22.9417 40.3998 23.8494C40.9361 24.0969 41.7819 24.592 41.8851 24.7158C41.9263 24.7571 41.9882 25.0252 42.0295 25.2934C42.1739 26.263 42.112 26.985 41.8026 27.542C41.6375 27.8514 41.6375 27.934 41.7407 28.2021C41.8232 28.4084 42.0707 28.5528 42.2977 28.5528C42.7928 28.5528 43.3085 27.7689 43.556 26.6756L43.6592 26.2424L43.8449 26.4487C44.8969 27.6245 45.7221 29.2542 45.8459 30.4095L45.8871 30.7189L45.7015 30.4507C45.392 29.9763 45.1032 29.6668 44.7113 29.3986C44.0099 28.9242 43.2672 28.7798 41.3075 28.6766C39.5334 28.5735 38.5225 28.4291 37.5323 28.099C35.8407 27.542 34.9743 26.82 32.9733 24.1588C32.0862 22.983 31.5292 22.3435 30.9722 21.8071C29.7551 20.6312 28.538 20.0124 26.9496 19.7648Z" fill="#FF007A"/>
<path d="M42.3181 22.3846C42.3594 21.6007 42.4625 21.0849 42.6894 20.6105C42.772 20.4248 42.8545 20.2598 42.8751 20.2598C42.8957 20.2598 42.8545 20.4042 42.7926 20.5692C42.6276 21.023 42.6069 21.6626 42.7101 22.3846C42.8545 23.3129 42.9164 23.4367 43.9066 24.4475C44.3604 24.922 44.8968 25.5202 45.1031 25.7678L45.4538 26.2216L45.1031 25.8915C44.6698 25.4789 43.6796 24.695 43.4527 24.5919C43.3083 24.5094 43.2877 24.5094 43.1845 24.6125C43.102 24.695 43.0814 24.8188 43.0814 25.4171C43.0608 26.3454 42.937 26.923 42.6276 27.5212C42.4625 27.8307 42.4419 27.7688 42.5863 27.4181C42.6894 27.1499 42.7101 27.0261 42.7101 26.1391C42.7101 24.3443 42.5038 23.9111 41.2454 23.1891C40.936 23.0034 40.3996 22.7353 40.0902 22.5909C39.7601 22.4465 39.5126 22.3227 39.5332 22.3227C39.5744 22.2814 40.7916 22.6321 41.266 22.8384C41.9881 23.1272 42.1118 23.1479 42.1943 23.1272C42.2562 23.0653 42.2975 22.9003 42.3181 22.3846Z" fill="#FF007A"/>
<path d="M27.7953 25.4583C26.9289 24.2618 26.3719 22.4052 26.4957 21.0231L26.5369 20.5898L26.7432 20.6311C27.1146 20.693 27.7541 20.9405 28.0635 21.1262C28.8887 21.6213 29.26 22.3021 29.6107 23.9937C29.7138 24.4888 29.8582 25.0664 29.9201 25.252C30.0233 25.5615 30.4152 26.2835 30.7453 26.7373C30.9722 27.0674 30.8278 27.2324 30.3121 27.1912C29.5282 27.1087 28.4761 26.3866 27.7953 25.4583Z" fill="#FF007A"/>
<path d="M41.2662 34.432C37.1816 32.7817 35.7375 31.3583 35.7375 28.9447C35.7375 28.594 35.7582 28.3052 35.7582 28.3052C35.7788 28.3052 35.9232 28.429 36.1089 28.5734C36.934 29.2335 37.8624 29.5223 40.441 29.8936C41.9469 30.1205 42.8134 30.2856 43.5973 30.5538C46.0934 31.3789 47.6406 33.0705 48.0119 35.3604C48.1151 36.0205 48.0532 37.2789 47.8881 37.939C47.7437 38.4547 47.3312 39.4037 47.228 39.4243C47.2074 39.4243 47.1661 39.3212 47.1661 39.1561C47.1249 38.2897 46.6917 37.4645 45.9696 36.825C45.1032 36.0824 43.9892 35.5254 41.2662 34.432Z" fill="#FF007A"/>
<path d="M38.3779 35.1129C38.3367 34.8034 38.2335 34.4115 38.1717 34.2464L38.0685 33.937L38.2542 34.1639C38.5223 34.4734 38.7286 34.8447 38.9143 35.3604C39.0587 35.7524 39.0587 35.8762 39.0587 36.5157C39.0587 37.1345 39.0381 37.2789 38.9143 37.6296C38.708 38.1866 38.4605 38.5786 38.0479 39.0118C37.3052 39.7751 36.3357 40.1877 34.9535 40.3733C34.706 40.3939 34.0046 40.4558 33.3857 40.4971C31.8385 40.5796 30.807 40.7446 29.8787 41.0747C29.7549 41.116 29.6312 41.1572 29.6105 41.1366C29.5693 41.0953 30.2088 40.724 30.7245 40.4765C31.4465 40.1258 32.1892 39.9401 33.8189 39.6513C34.6234 39.5275 35.4486 39.3625 35.6549 39.28C37.6972 38.6405 38.708 37.052 38.3779 35.1129Z" fill="#FF007A"/>
<path d="M40.2554 38.4342C39.719 37.2583 39.5952 36.1444 39.884 35.0923C39.9253 34.9891 39.9666 34.886 40.0078 34.886C40.0491 34.886 40.1729 34.9479 40.2966 35.0304C40.5442 35.1954 41.0599 35.4842 42.3802 36.2063C44.0511 37.1139 45.0001 37.8153 45.6602 38.6199C46.2378 39.3213 46.5885 40.1258 46.7536 41.116C46.8567 41.673 46.7948 43.0139 46.6504 43.5709C46.1966 45.3244 45.1651 46.7271 43.6592 47.5317C43.4323 47.6555 43.2466 47.738 43.226 47.738C43.2053 47.738 43.2879 47.5317 43.4116 47.2841C43.9067 46.232 43.9686 45.2212 43.5973 44.0866C43.3704 43.3852 42.8959 42.5394 41.947 41.116C40.8124 39.4657 40.5442 39.0325 40.2554 38.4342Z" fill="#FF007A"/>
<path d="M24.8866 44.7467C26.4131 43.4677 28.2904 42.56 30.0233 42.2712C30.7659 42.1474 32.0037 42.1887 32.6844 42.3743C33.7778 42.6631 34.768 43.282 35.2837 44.0453C35.7788 44.788 36.0057 45.4275 36.2326 46.8509C36.3152 47.4079 36.4183 47.9855 36.4389 48.1093C36.604 48.8519 36.934 49.4295 37.3466 49.739C37.9861 50.2134 39.1001 50.2341 40.1934 49.8215C40.3791 49.7596 40.5441 49.6977 40.5441 49.7183C40.5854 49.7596 40.0284 50.1309 39.6571 50.3166C39.1414 50.5848 38.7288 50.6673 38.1718 50.6673C37.1816 50.6673 36.3358 50.1515 35.655 49.1201C35.5106 48.9138 35.2218 48.3155 34.9743 47.7586C34.2522 46.0876 33.8809 45.5925 33.0351 45.0355C32.2925 44.561 31.3435 44.4579 30.6215 44.8086C29.6726 45.2624 29.425 46.4795 30.0851 47.2222C30.3533 47.5316 30.8484 47.7792 31.261 47.8411C32.0243 47.9442 32.6844 47.346 32.6844 46.5827C32.6844 46.0876 32.4988 45.7988 32.0037 45.5719C31.3435 45.2831 30.6215 45.6131 30.6421 46.2526C30.6421 46.5208 30.7659 46.6858 31.0341 46.8096C31.1991 46.8921 31.1991 46.8921 31.0753 46.8715C30.4771 46.7477 30.3327 46.0051 30.8072 45.5306C31.3848 44.953 32.6019 45.2005 33.0145 46.0051C33.1795 46.3351 33.2001 46.9953 33.0557 47.4079C32.705 48.3155 31.7148 48.79 30.704 48.5218C30.0233 48.3362 29.7344 48.1505 28.9093 47.3047C27.4652 45.8194 26.9082 45.5306 24.8453 45.2212L24.4534 45.1593L24.8866 44.7467Z" fill="#FF007A"/>
<path fill-rule="evenodd" clip-rule="evenodd" d="M14.0356 11.5543C18.8422 17.3924 26.248 26.4692 26.6194 26.9643C26.9288 27.3769 26.805 27.7688 26.2893 28.0576C26.0005 28.2227 25.4022 28.3877 25.1134 28.3877C24.7834 28.3877 24.3914 28.2227 24.1232 27.9545C23.9376 27.7688 23.133 26.593 21.3177 23.7668C19.9355 21.6007 18.7596 19.806 18.739 19.7853C18.6565 19.7441 18.6565 19.7441 21.1733 24.2412C22.7617 27.0674 23.2774 28.0783 23.2774 28.202C23.2774 28.4702 23.1949 28.6146 22.8649 28.986C22.3079 29.6048 22.0603 30.3062 21.8747 31.7709C21.6684 33.4006 21.1114 34.5558 19.5229 36.5156C18.5946 37.6708 18.4502 37.8771 18.2233 38.3516C17.9345 38.9292 17.852 39.2593 17.8107 40.0019C17.7694 40.7859 17.852 41.281 18.0789 42.0236C18.2852 42.6837 18.5121 43.117 19.0691 43.9628C19.5436 44.7054 19.8324 45.2624 19.8324 45.4687C19.8324 45.6337 19.8736 45.6337 20.6163 45.4687C22.3904 45.0561 23.8551 44.3547 24.6596 43.4883C25.1547 42.9519 25.2785 42.6631 25.2785 41.9205C25.2785 41.446 25.2578 41.3428 25.1341 41.054C24.9278 40.6002 24.5358 40.2289 23.69 39.6513C22.576 38.888 22.1016 38.2691 21.9778 37.4439C21.8747 36.7425 21.9984 36.2681 22.6173 34.9684C23.2568 33.6275 23.4218 33.0705 23.525 31.709C23.5869 30.8426 23.69 30.4919 23.9376 30.2237C24.2058 29.9349 24.4327 29.8318 25.0722 29.7492C26.1243 29.6048 26.805 29.3367 27.3414 28.8209C27.8159 28.3877 28.0222 27.9545 28.0428 27.315L28.0634 26.8405L27.7952 26.5517C26.8257 25.4377 13.3961 10.6672 13.3342 10.6672C13.3135 10.6672 13.6436 11.0592 14.0356 11.5543ZM20.3687 40.889C20.5956 40.497 20.4719 40.0019 20.1005 39.7544C19.7499 39.5275 19.2135 39.6306 19.2135 39.9401C19.2135 40.0226 19.2548 40.1051 19.3785 40.1463C19.5642 40.2495 19.5848 40.3526 19.4404 40.5796C19.296 40.8065 19.296 41.0128 19.4817 41.1572C19.7705 41.3841 20.1624 41.2603 20.3687 40.889Z" fill="#FF007A"/>
<path fill-rule="evenodd" clip-rule="evenodd" d="M28.7237 30.038C28.2286 30.1824 27.7541 30.7187 27.6097 31.2551C27.5272 31.5852 27.5684 32.1834 27.7128 32.3691C27.9398 32.6579 28.146 32.7404 28.7237 32.7404C29.8583 32.7404 30.8278 32.2453 30.931 31.6471C31.0341 31.152 30.6009 30.4712 30.0027 30.1618C29.6932 29.9967 29.0537 29.9348 28.7237 30.038ZM30.0439 31.0694C30.209 30.8219 30.1471 30.5537 29.8376 30.368C29.2807 30.0173 28.4349 30.3061 28.4349 30.8425C28.4349 31.1107 28.8681 31.3995 29.2807 31.3995C29.5488 31.3995 29.9202 31.2345 30.0439 31.0694Z" fill="#FF007A"/>
<defs>
<linearGradient id="paint0_linear_572_423460" x1="32" y1="0.000488281" x2="32" y2="64.0005" gradientUnits="userSpaceOnUse">
<stop stop-color="#FEF3F9"/>
<stop offset="1" stop-color="#FDE5F2"/>
</linearGradient>
</defs>
</svg>

<svg width="64" height="64" fill="none" xmlns="http://www.w3.org/2000/svg"><rect x="2" y="2" width="60" height="60" rx="2" fill="url(#paint0_linear_572_423460)" stroke="#FFD9EC" stroke-width="4"/><path d="M26.95 19.765c-.434-.062-.454-.083-.248-.103.392-.062 1.3.02 1.94.165 1.484.35 2.825 1.258 4.249 2.846l.371.434.536-.083c2.29-.371 4.642-.082 6.602.825.536.248 1.382.743 1.485.867.041.041.103.31.145.577.144.97.082 1.692-.227 2.249-.165.31-.165.392-.062.66.082.206.33.35.557.35.495 0 1.01-.783 1.258-1.876l.103-.434.186.207c1.052 1.175 1.877 2.805 2 3.96l.042.31-.185-.268c-.31-.475-.599-.784-.99-1.052-.702-.475-1.445-.62-3.405-.722-1.774-.104-2.785-.248-3.775-.578-1.691-.557-2.558-1.279-4.559-3.94-.887-1.176-1.444-1.816-2-2.352-1.218-1.176-2.435-1.795-4.023-2.042z" fill="#FF007A"/><path d="M42.318 22.385c.041-.784.145-1.3.371-1.775.083-.185.166-.35.186-.35.02 0-.02.144-.082.31-.165.453-.186 1.093-.083 1.815.145.928.206 1.052 1.197 2.063.453.474.99 1.072 1.196 1.32l.35.454-.35-.33c-.433-.413-1.423-1.197-1.65-1.3-.145-.083-.165-.083-.269.02-.082.083-.103.207-.103.805-.02.928-.144 1.506-.453 2.104-.166.31-.186.248-.042-.103.103-.268.124-.392.124-1.279 0-1.795-.206-2.228-1.465-2.95a14.94 14.94 0 00-1.155-.598c-.33-.145-.577-.268-.557-.268.041-.042 1.259.31 1.733.515.722.29.846.31.928.29.062-.063.103-.228.124-.743zm-14.523 3.073c-.866-1.196-1.423-3.053-1.3-4.435l.042-.433.206.041c.372.062 1.011.31 1.32.495.826.495 1.197 1.176 1.548 2.868.103.495.247 1.072.31 1.258.102.31.494 1.032.824 1.485.227.33.083.495-.433.454-.784-.082-1.836-.804-2.517-1.733zm13.471 8.974c-4.084-1.65-5.529-3.074-5.529-5.487 0-.351.021-.64.021-.64.02 0 .165.124.35.268.826.66 1.754.95 4.333 1.32 1.506.227 2.372.393 3.156.66 2.496.826 4.044 2.518 4.415 4.807.103.66.041 1.919-.124 2.579-.144.516-.557 1.465-.66 1.485-.02 0-.062-.103-.062-.268-.041-.866-.474-1.691-1.196-2.331-.867-.743-1.98-1.3-4.704-2.393zm-2.888.681a4.891 4.891 0 00-.206-.867l-.103-.309.185.227c.268.31.475.68.66 1.196.145.392.145.516.145 1.156 0 .619-.02.763-.145 1.114a3.733 3.733 0 01-.866 1.382c-.743.763-1.712 1.176-3.095 1.361-.247.02-.948.083-1.567.124-1.548.083-2.579.248-3.507.578-.124.041-.248.082-.269.062-.04-.042.599-.413 1.114-.66.723-.351 1.465-.537 3.095-.826.804-.123 1.63-.289 1.836-.371 2.042-.64 3.053-2.228 2.723-4.167z" fill="#FF007A"/><path d="M40.255 38.434c-.536-1.176-.66-2.29-.371-3.342.041-.103.083-.206.124-.206.041 0 .165.062.289.144.247.165.763.454 2.083 1.176 1.671.908 2.62 1.61 3.28 2.414.578.701.929 1.506 1.094 2.496.103.557.04 1.898-.104 2.455-.453 1.753-1.485 3.156-2.99 3.96a2.866 2.866 0 01-.434.207c-.02 0 .062-.206.186-.454.495-1.052.557-2.063.185-3.197-.227-.702-.701-1.548-1.65-2.971-1.135-1.65-1.403-2.084-1.692-2.682zm-15.368 6.313c1.526-1.28 3.403-2.187 5.136-2.476.743-.124 1.98-.082 2.661.103 1.094.29 2.084.908 2.6 1.671.495.743.722 1.383.949 2.806.082.557.185 1.135.206 1.258.165.743.495 1.32.908 1.63.64.474 1.753.495 2.846.083.186-.062.351-.124.351-.104.041.042-.516.413-.887.599-.516.268-.928.35-1.485.35-.99 0-1.836-.516-2.517-1.547-.144-.206-.433-.804-.68-1.361-.723-1.671-1.094-2.166-1.94-2.724-.742-.474-1.691-.577-2.413-.226-.95.453-1.197 1.67-.537 2.413.268.31.763.557 1.176.62a1.259 1.259 0 001.423-1.26c0-.494-.185-.783-.68-1.01-.66-.289-1.382.041-1.362.68 0 .269.124.434.392.558.165.082.165.082.041.061-.598-.123-.742-.866-.268-1.34.578-.578 1.795-.33 2.207.474.165.33.186.99.042 1.403-.351.907-1.341 1.382-2.352 1.114-.68-.186-.97-.371-1.795-1.217-1.444-1.486-2-1.774-4.064-2.084l-.392-.062.434-.412z" fill="#FF007A"/><path fill-rule="evenodd" clip-rule="evenodd" d="M14.036 11.554c4.806 5.838 12.212 14.915 12.583 15.41.31.413.186.805-.33 1.094-.289.165-.887.33-1.176.33-.33 0-.722-.165-.99-.434-.185-.185-.99-1.361-2.805-4.187a268.498 268.498 0 00-2.579-3.982c-.082-.04-.082-.04 2.434 4.456 1.589 2.826 2.104 3.837 2.104 3.961 0 .268-.082.413-.412.784-.557.619-.805 1.32-.99 2.785-.207 1.63-.764 2.785-2.352 4.745-.928 1.155-1.073 1.361-1.3 1.836-.288.577-.371.907-.412 1.65-.042.784.041 1.279.268 2.022.206.66.433 1.093.99 1.939.475.742.763 1.3.763 1.506 0 .165.042.165.784 0 1.774-.413 3.24-1.114 4.044-1.98.495-.537.619-.826.619-1.569 0-.474-.021-.577-.145-.866-.206-.454-.598-.825-1.444-1.403-1.114-.763-1.588-1.382-1.712-2.207-.103-.702.02-1.176.64-2.476.639-1.34.804-1.898.907-3.259.062-.866.165-1.217.413-1.485.268-.29.495-.392 1.134-.475 1.052-.144 1.733-.412 2.27-.928.474-.433.68-.867.7-1.506l.021-.475-.268-.288c-.97-1.114-14.399-15.885-14.46-15.885-.022 0 .309.392.7.887zm6.333 29.335a.852.852 0 00-.268-1.135c-.351-.226-.887-.123-.887.186 0 .083.04.165.165.206.185.103.206.207.061.434-.144.227-.144.433.042.577.288.227.68.103.887-.268zm8.355-10.851c-.495.144-.97.68-1.114 1.217-.083.33-.042.928.103 1.114.227.289.433.371 1.01.371 1.135 0 2.105-.495 2.208-1.093.103-.495-.33-1.176-.928-1.485-.31-.165-.95-.227-1.28-.124zm1.32 1.031c.165-.247.103-.515-.206-.701-.557-.35-1.403-.062-1.403.475 0 .268.433.556.846.556.268 0 .64-.165.763-.33z" fill="#FF007A"/><defs><linearGradient id="paint0_linear_572_423460" x1="32" y1="0" x2="32" y2="64.001" gradientUnits="userSpaceOnUse"><stop stop-color="#FEF3F9"/><stop offset="1" stop-color="#FDE5F2"/></linearGradient></defs></svg>
